assets/img/hr-red-3.svg

<?xml version="1.0" encoding="UTF-8" standalone="no"?>
<svg width="80px" height="8px" viewBox="0 0 80 8" version="1.1" xmlns="http://www.w3.org/2000/svg" xmlns:xlink="http://www.w3.org/1999/xlink">
    <!-- Generator: Sketch 39.1 (31720) - http://www.bohemiancoding.com/sketch -->
    <title>Group 10</title>
    <desc>Created with Sketch.</desc>
    <defs></defs>
    <g id="Page-1" stroke="none" stroke-width="1" fill="none" fill-rule="evenodd">
        <g id="Playbook-Principles" transform="translate(-100.000000, -1305.000000)" fill="#E21C3D">
            <g id="Group-10" transform="translate(100.000000, 1305.000000)">
                <path d="M-8.43769499e-16,4 C-8.43769499e-16,1.790861 1.78185079,0 3.99484381,0 L34.0051562,0 C36.2114475,0 38,1.79535615 38,4 L38,4 C38,6.209139 36.2181492,8 34.0051562,8 L3.99484381,8 C1.7885525,8 -8.43769499e-16,6.20464385 -8.43769499e-16,4 L-8.43769499e-16,4 Z" id="Rectangle-234-Copy-8"></path>
                <path d="M44,4 C44,1.790861 45.8003523,0 48.0095579,0 L61.9904421,0 C64.2048598,0 66,1.79535615 66,4 L66,4 C66,6.209139 64.1996477,8 61.9904421,8 L48.0095579,8 C45.7951402,8 44,6.20464385 44,4 L44,4 Z" id="Rectangle-234-Copy-12"></path>
                <path d="M72,4 C72,1.790861 73.7953562,0 76,0 L76,0 C78.209139,0 80,1.79535615 80,4 L80,4 C80,6.209139 78.2046438,8 76,8 L76,8 C73.790861,8 72,6.20464385 72,4 L72,4 Z" id="Rectangle-234-Copy-10"></path>
            </g>
        </g>
    </g>
</svg>

<svg width="80" height="8" xmlns="http://www.w3.org/2000/svg"><path d="M0 4c0-2.21 1.782-4 3.995-4h30.01A4 4 0 0138 4c0 2.21-1.782 4-3.995 4H3.995A4 4 0 010 4zm44 0c0-2.21 1.8-4 4.01-4h13.98A4.008 4.008 0 0166 4c0 2.21-1.8 4-4.01 4H48.01A4.008 4.008 0 0144 4zm28 0c0-2.21 1.795-4 4-4 2.21 0 4 1.795 4 4 0 2.21-1.795 4-4 4-2.21 0-4-1.795-4-4z" fill="#E21C3D" fill-rule="evenodd"/></svg>
